X: 23547
T: Liflig
R: waltz
M: 3/4
K: Gmajor
B>A GB AG|Fd d/c/B/A/ c/B/A/G/|B>A GB AG|Ff fg dc|
B>A GB FB|EB d/c/B/A/ c/B/A/G/|B/A/G/F/ G4:|
|:G>G Gd- dG|Fd d2-dF|E>E EB- BE|FB B2 B/A/G/F/|
G>G Gd- dG|Fd d2- dB/d/|e/d/c/B/ d/c/B/A/ c/B/A/G/|B/A/G/F/ G4:|

